src/dark/hiso font dark_r.svg

<svg xmlns="http://www.w3.org/2000/svg" width="90" height="126" viewBox="0 0 90 126"><path fill="#000101" d="M39.35 82.679l32.65 16.321-16.32-24.49-16.33 8.169zm32.65-55.679v36l-36 18v36l-36-18v-72l36-18 36 18zm-6.7 36l3.346-1.677-29.296-14.644-3.35 1.671 29.3 14.65zm-32.3-16.5l35.646-17.823-32.646-16.327-33 16.5v68.3l30 15v-65.65z"/></svg>

<svg xmlns="http://www.w3.org/2000/svg" width="90" height="126"><path fill="#000101" d="M39.35 82.679L72 99 55.68 74.51l-16.33 8.169zM72 27v36L36 81v36L0 99V27L36 9l36 18zm-6.7 36l3.346-1.677L39.35 46.679 36 48.35 65.3 63zM33 46.5l35.646-17.823L36 12.35 3 28.85v68.3l30 15V46.5z"/></svg>
